X:795
T:Loka Britas låt
R:Polska
O:Delsbo, Hälsingland
S:efter Erik Ljung
B:Svenska Låtar Hälsingland nr 335
N:Finns också [[http://www.norbeck.nu/abc/index2.asp?cat=s&sort=title&first=Loka|här]] och på [[http://www.smus.se/earkiv/fmk/browselarge.php?lang=sw&katalogid=Hs+17&bildnr=00017|SMUS]] (där även texten finns).
N:Se även klipp på [[http://www.youtube.com/watch?v=sRa-RUd63F8|Youtube]].
Z:Jonas Brunskog
M:3/4
L:1/8
K:D
e|:eg (g{ae})f fc|e/f/e d2 c>d|ef/^g/ ac df|ea [AA,]3 e|
eg (g{ae})f fc|e/f/e d2 c>d|ef/^g/ a2 d2|[1c[dF] [dF]3 e:|[2 c[dF] [dF]3 A|]
|:A>G EE FG|Ac GB (B{cB})A|A>G EE FG|Ac GB (B{cB})A|A>G EA DF|ED CE A2|
A>G EE FG|Ac GB (B{cB})A|Ac de =f/e/f/g/||[1 ac d3 A:|[2 ac d3 z |]
(:musicend:)

(:music:)
